symbols/web/edit_calendar/materialsymbolsoutlined/edit_calendar_wght600grad200_24px.svg

<svg xmlns="http://www.w3.org/2000/svg" height="24" width="24"><path d="M5.075 22.975q-1.275 0-2.175-.9-.9-.9-.9-2.175V6.05q0-1.3.9-2.188.9-.887 2.175-.887h.3v-1.95h2.75v1.95h7.75v-1.95h2.75v1.95h.3q1.275 0 2.175.887.9.888.9 2.188v6.675h-3.075v-3.05H5.075V19.9H12v3.075Zm17.95-4.625-2.85-2.875.725-.725q.425-.425 1.063-.425.637 0 1.062.425l.725.725q.45.45.438 1.087-.013.638-.438 1.063ZM14 24.525V21.65l5.475-5.475 2.85 2.875-5.45 5.475ZM5.075 7.25h13.85v-1.2H5.075Zm0 0v-1.2 1.2Z"/></svg>

<svg xmlns="http://www.w3.org/2000/svg" height="24" width="24"><path d="M5.075 22.975Q3.8 22.975 2.9 22.075Q2 21.175 2 19.9V6.05Q2 4.75 2.9 3.862Q3.8 2.975 5.075 2.975H5.375V1.025H8.125V2.975H15.875V1.025H18.625V2.975H18.925Q20.2 2.975 21.1 3.862Q22 4.75 22 6.05V12.725H18.925V9.675H5.075V19.9Q5.075 19.9 5.075 19.9Q5.075 19.9 5.075 19.9H12V22.975ZM23.025 18.35 20.175 15.475 20.9 14.75Q21.325 14.325 21.963 14.325Q22.6 14.325 23.025 14.75L23.75 15.475Q24.2 15.925 24.188 16.562Q24.175 17.2 23.75 17.625ZM14 24.525V21.65L19.475 16.175L22.325 19.05L16.875 24.525ZM5.075 7.25H18.925V6.05Q18.925 6.05 18.925 6.05Q18.925 6.05 18.925 6.05H5.075Q5.075 6.05 5.075 6.05Q5.075 6.05 5.075 6.05ZM5.075 7.25V6.05Q5.075 6.05 5.075 6.05Q5.075 6.05 5.075 6.05Q5.075 6.05 5.075 6.05Q5.075 6.05 5.075 6.05V7.25Z"/></svg>
